X:11
T:30 Year Jig, The
O:england
M:6/8
L:1/8
Q:200
C:Roger Tallroth
R:jig
K:G
D|:EDE FEF|GBG D2D|EcB AGE|{F} G2(A A)FD|
EDE FEF|GBG D2D|EcB AGE|1F2(G G)zD:|2F2(G G)z2|
:~g3 agf|~g3 d(3B^cd|egf edc|BAG ABd|
~g3 agf|~g3 d(3B^cd|egf ed(B|B)gf edB|
cBA ~B3|ced BAB|cBc eag|1f2(g g)z2:|2f2(g g)zD||


